src/pos-icons/tanker-truck.svg

<svg height="24" viewBox="0 0 24 24" width="24" xmlns="http://www.w3.org/2000/svg"><path d="m20 8h-5v6h-13v3h1c0 1.7 1.3 3 3 3s3-1.3 3-3h6c0 1.7 1.3 3 3 3s3-1.3 3-3h2v-5zm-14 10.5c-.8 0-1.5-.7-1.5-1.5s.7-1.5 1.5-1.5 1.5.7 1.5 1.5-.7 1.5-1.5 1.5m12 0c-.8 0-1.5-.7-1.5-1.5s.7-1.5 1.5-1.5 1.5.7 1.5 1.5-.7 1.5-1.5 1.5m-1-6.5v-2.5h2.5l2 2.5zm-3-2.5c0 1.9-1.6 3.5-3.5 3.5h-6c-1.9 0-3.5-1.6-3.5-3.5s1.6-3.5 3.5-3.5h.5v-1h-1v-1h4v1h-1v1h3.5c1.9 0 3.5 1.6 3.5 3.5z"/></svg>

<?xml version="1.0" encoding="UTF-8"?><!DOCTYPE svg PUBLIC "-//W3C//DTD SVG 1.1//EN" "http://www.w3.org/Graphics/SVG/1.1/DTD/svg11.dtd"><svg xmlns="http://www.w3.org/2000/svg" xmlns:xlink="http://www.w3.org/1999/xlink" version="1.1" id="mdi-tanker-truck" width="24" height="24" viewBox="0 0 24 24"><path d="M20 8H15V14H2V17H3C3 18.7 4.3 20 6 20S9 18.7 9 17H15C15 18.7 16.3 20 18 20S21 18.7 21 17H23V12L20 8M6 18.5C5.2 18.5 4.5 17.8 4.5 17S5.2 15.5 6 15.5 7.5 16.2 7.5 17 6.8 18.5 6 18.5M18 18.5C17.2 18.5 16.5 17.8 16.5 17S17.2 15.5 18 15.5 19.5 16.2 19.5 17 18.8 18.5 18 18.5M17 12V9.5H19.5L21.5 12H17M14 9.5C14 11.4 12.4 13 10.5 13H4.5C2.6 13 1 11.4 1 9.5S2.6 6 4.5 6H5V5H4V4H8V5H7V6H10.5C12.4 6 14 7.6 14 9.5Z" /></svg>
